modules/stroke-7/icons/airplay.svg

<?xml version="1.0" encoding="utf-8"?>
<!-- Generated by IcoMoon.io -->
<!DOCTYPE svg PUBLIC "-//W3C//DTD SVG 1.1//EN" "http://www.w3.org/Graphics/SVG/1.1/DTD/svg11.dtd">
<svg version="1.1" xmlns="http://www.w3.org/2000/svg" xmlns:xlink="http://www.w3.org/1999/xlink" width="32" height="32" viewBox="0 0 32 32">
<g id="icomoon-ignore">
</g>
<path d="M28.795 4.804h-25.59v15.994h8.682l-5.483 6.398h19.192l-5.484-6.398h8.683v-15.994zM8.722 26.129l7.277-8.491 7.278 8.491h-14.556zM27.729 19.732h-8.531l-3.199-3.732-3.199 3.732h-8.529v-13.861h23.457v13.861z" fill="#000000"></path>
</svg>

<svg xmlns="http://www.w3.org/2000/svg" width="32" height="32"><path d="M28.795 4.804H3.205v15.994h8.682l-5.483 6.398h19.192l-5.484-6.398h8.683V4.804zM8.722 26.129l7.277-8.491 7.278 8.491H8.721zm19.007-6.397h-8.531L15.999 16 12.8 19.732H4.271V5.871h23.457v13.861z"/></svg>
